X: 1
T: Frank & Julie Leahy's
M: 4/4
L: 1/8
R: strathspey
K: Ador
A,>cA<G A2 A>B,|A,>cA>G A<A,A,>B,|A,>cA<G A>Bc>A|G>D E/F/G/D/ B,/C/D/B,/ G,>B,:|
A,>ge<d e2 e>g|e>de>g a<AA<B|A>ge<d e>ga<b|g>ed>c B<GG>B,|
A,>ge<d e2 e>g|e>de>g f<d (3dfg|a>ba>g e>dB>A|G>D E/F/G/D/ B,/C/D/B,/ G,>B,|]
